X:362
T: HERZ MEIN HERZ WAS SOLL DAS GEBEN
N: B0429
O: Europa, Mitteleuropa, Deutschland
R: Liebes - Lied, Liebes - Lust
M: 4/4
L: 1/16
K: C
G,4z2G,2 | G,4z2G,2C4E,4 | G,2F,2F,2z2
_B,4B,4 | A,2B,2C2G,2G,4F,4 | E,4z4
G,4G,4 | G,2^F,2F,4C4C4 | C2B,2B,2z2
D4D4 | D2E,2C2A,2G,4B,2A,2 | G,8
D,4D,4 | _E,4E,4=E,4E,4 | F,4F,4
^F,4F,4 | G,4G,4C4C4 | C12CB,A,G, | G,8
C4z2G,2 | A,6A,2D2C2B,2A,2 | B,4z4
C4G,4 | A,2F2E2D2C4B,4 | C8

@@@ Tune index: 2165
